Numix-GalliumOS/scalable/status/weather-severe-alert-symbolic.svg

<svg width="16" xmlns="http://www.w3.org/2000/svg" viewBox="0 0 16 16" height="16" style="enable-background:new">
<defs>
<clipPath clipPathUnits="userSpaceOnUse">
<path style="fill:#4a0;clip-path:url(#clipPath11535)" d="m 699.2857,672.93231 a 40.714287,40.714287 0 1 1 -81.42858,0 40.714287,40.714287 0 1 1 81.42858,0 z"/>
</clipPath>
<clipPath clipPathUnits="userSpaceOnUse">
<path style="fill:#4a0;clip-path:url(#clipPath11535)" d="m 699.2857,672.93231 a 40.714287,40.714287 0 1 1 -81.42858,0 40.714287,40.714287 0 1 1 81.42858,0 z" transform="matrix(4.3233 0 0 4.3233 -2450.68 -2667.55)"/>
</clipPath>
<clipPath clipPathUnits="userSpaceOnUse">
<rect width="301.429" x="0" y="857.541" height="195" style="fill:#fff"/>
</clipPath>
<clipPath clipPathUnits="userSpaceOnUse">
<rect width="287.432" x="257.321" y="793.52" height="279.027" style="fill:#fff" transform="rotate(.16206)"/>
</clipPath>
<clipPath clipPathUnits="userSpaceOnUse">
<rect width="301.429" x="0" y=".06" height="195" style="fill:#fff"/>
</clipPath>
<clipPath clipPathUnits="userSpaceOnUse">
<rect width="301.429" x="0" y="857.541" height="195" style="fill:#fff"/>
</clipPath>
<clipPath clipPathUnits="userSpaceOnUse">
<path style="fill:#4a0;clip-path:url(#clipPath11535)" d="m 699.2857,672.93231 a 40.714287,40.714287 0 1 1 -81.42858,0 40.714287,40.714287 0 1 1 81.42858,0 z" transform="matrix(4.3233 0 0 4.3233 -2450.68 -2667.55)"/>
</clipPath>
<clipPath id="clipPath11535" clipPathUnits="userSpaceOnUse">
<path style="fill:#4a0" d="m 699.2857,672.93231 a 40.714287,40.714287 0 1 1 -81.42858,0 40.714287,40.714287 0 1 1 81.42858,0 z"/>
</clipPath>
<clipPath clipPathUnits="userSpaceOnUse">
<rect width="63.987" x="448.118" y="815.74" height="41.394" style="fill:#fff" transform="rotate(27.44968)"/>
</clipPath>
<clipPath clipPathUnits="userSpaceOnUse">
<rect width="301.429" x="0" y="857.541" height="195" style="fill:#fff"/>
</clipPath>
<clipPath clipPathUnits="userSpaceOnUse">
<path style="fill:#4a0" d="m 699.2857,672.93231 a 40.714287,40.714287 0 1 1 -81.42858,0 40.714287,40.714287 0 1 1 81.42858,0 z" transform="matrix(4.3233 0 0 4.3233 -2450.68 -2667.55)"/>
</clipPath>
<clipPath clipPathUnits="userSpaceOnUse">
<rect width="79.477" x="276.365" y="977.09" height="30.006" style="fill:#e20a17"/>
</clipPath>
<clipPath clipPathUnits="userSpaceOnUse">
<rect width="506.461" x="8.208" y=".064" height="37.48" style="fill:#162d50" transform="rotate(20.37582)"/>
</clipPath>
<clipPath>
<rect width="477.143" x="-830" y="1580.934" height="208.571" style="fill:#ff0"/>
</clipPath>
<clipPath>
<rect width="477.143" x="-830" y="1580.934" height="208.571" style="fill:#ff0"/>
</clipPath>
<clipPath>
<rect width="477.143" x="-830" y="1580.934" height="208.571" style="fill:#ff0"/>
</clipPath>
<clipPath clipPathUnits="userSpaceOnUse">
<rect width="357.384" x="218.9" y="758.675" height="318.397" style="fill:#fff" transform="rotate(.22918)"/>
</clipPath>
<clipPath>
<rect width="477.143" x="-830" y="1580.934" height="208.571" style="fill:#ff0"/>
</clipPath>
<clipPath clipPathUnits="userSpaceOnUse">
<rect width="506.461" x="8.208" y=".064" height="37.48" style="fill:#162d50" transform="rotate(20.37582)"/>
</clipPath>
<clipPath>
<rect width="477.143" x="-830" y="1580.934" height="208.571" style="fill:#ff0"/>
</clipPath>
<clipPath>
<rect width="477.143" x="-830" y="1580.934" height="208.571" style="fill:#ff0"/>
</clipPath>
<clipPath clipPathUnits="userSpaceOnUse">
<rect width="357.384" x="218.9" y="758.675" height="318.397" style="fill:#fff" transform="rotate(.22918)"/>
</clipPath>
<clipPath clipPathUnits="userSpaceOnUse">
<rect width="357.865" x="294.934" y="780.645" height="240.871" style="fill:#f00" transform="matrix(.99975 -.02255 .02255 .99975 0 0)"/>
</clipPath>
<clipPath clipPathUnits="userSpaceOnUse">
<rect width="350.457" x="221.386" y="804.242" height="235.885" transform="rotate(.6171)"/>
</clipPath>
</defs>
<path class="error" style="fill:#ef555c;color:#bebebe" d="M 7.00003,6.999999 7.25003,13 l 1.5,0 0.25,-6.000001 -2,0 z m 0,7.000001 0,2 2,0 0,-2 -2,0 z"/>
<path style="fill:#bebebe" d="M 5.09375,3.5 C 4.9385701,3.4982685 4.7935734,3.5069054 4.625,3.53125 1.9327982,3.9211332 2,6.53125 2,6.53125 0.8973149,6.7421497 0,7.8055395 0,8.9375 c 0,1.131944 1.1596475,2.146179 2.125,2.4375 0.574225,0.173282 1.3125,0 1.3125,0 0.3408653,0.676336 1.4661684,1.125 2.25,1.125 0.3544255,0 0.6938254,-0.05818 1.03125,-0.125 L 6.5,7.03125 6.46875,6.5 7,6.5 9,6.5 9.53125,6.5 9.5,7.03125 9.3125,11.4375 c 1.436154,0.108739 4.791871,0.312445 5.65625,-0.0625 C 16.567996,10.681284 16.064085,8.5140574 15,7.78125 13.935919,7.0484428 12.5625,7.5625 12.5625,7.5625 c 0,0 0.0048,-1.505832 -1.5,-2.21875 -1.5048143,-0.7129316 -2.78125,0.875 -2.78125,0.875 0,0 -0.859785,-2.7026176 -3.1875,-2.71875 z"/>
</svg>

<svg xmlns="http://www.w3.org/2000/svg" viewBox="0 0 16 16" style="enable-background:new">
 <path d="m 7 7 0.25 6 l 1.5 0 0.25 -6 -2 0 z m 0 7 0 2 2 0 0 -2 -2 0 z" style="fill:#ef555c;color:#bebebe"/>
 <path d="m 5.094 3.5 c -0.155 -0.002 -0.3 0.007 -0.469 0.031 -2.692 0.39 -2.625 3 -2.625 3 -1.103 0.211 -2 1.274 -2 2.406 c 0 1.132 1.16 2.146 2.125 2.438 0.574 0.173 1.313 0 1.313 0 0.341 0.676 1.466 1.125 2.25 1.125 0.354 0 0.694 -0.058 1.031 -0.125 l -0.219 -5.344 -0.031 -0.531 0.531 0 2 0 0.531 0 -0.031 0.531 -0.188 4.406 c 1.436 0.109 4.792 0.312 5.656 -0.063 c 1.599 -0.694 1.095 -2.861 0.031 -3.594 -1.064 -0.733 -2.438 -0.219 -2.438 -0.219 c 0 0 0.005 -1.506 -1.5 -2.219 -1.505 -0.713 -2.781 0.875 -2.781 0.875 0 0 -0.86 -2.703 -3.188 -2.719 z" style="fill:#bebebe"/>
</svg>
